icons/Actix-Dark.svg

<svg width="256" height="256" viewBox="0 0 256 256" fill="none" xmlns="http://www.w3.org/2000/svg">
<rect width="256" height="256" rx="60" fill="#242938"/>
<path fill-rule="evenodd" clip-rule="evenodd" d="M121.352 30.2542C120.143 37.8918 114.086 38.2979 111.67 30.9039C110.026 25.8743 105.957 26.0149 106.459 31.0836C107.224 38.808 101.2 41.352 97.4295 34.8971C96.0731 32.5759 94.8003 31.4887 93.8631 31.8516C93.062 32.1622 92.0922 32.4165 91.7082 32.4165C91.3238 32.4165 91.1831 34.2524 91.3952 36.4965C92.0821 43.7726 87.6549 45.9131 83.1362 40.4891C79.6944 36.3574 75.9687 37.6609 77.732 42.3793C80.3447 49.3713 75.7818 53.1055 70.1208 48.6079C68.0273 46.9445 67.0916 46.7481 65.4629 47.6287C63.0272 48.9449 63.0614 48.6277 64.9459 52.4437C67.8369 58.2966 63.8197 61.4603 57.9432 57.958C53.0265 55.0278 50.3229 57.6748 53.4064 62.3999C57.3055 68.3741 53.7537 72.852 47.5832 69.743C43.2886 67.5787 41.1941 70.7516 44.2911 74.729C48.453 80.0734 45.3841 85.2892 39.4152 83.0168C38.0945 82.5138 36.9488 82.2296 36.8694 82.3849C36.7894 82.5402 36.1593 83.4168 35.4688 84.333C34.4105 85.7374 34.708 86.4983 37.3654 89.1824C41.2866 93.1436 39.8936 96.6489 34.1728 97.2159C28.5787 97.7702 27.627 101.014 32.2743 103.685C37.1126 106.466 34.8779 112.614 29.029 112.614C25.9872 112.614 26.836 116.942 30.2642 118.912C34.4628 121.326 34.4598 125.535 30.2573 127.137C27.0165 128.373 25.6919 133.933 28.6382 133.933C34.4795 133.933 35.2092 140.974 29.5915 143.132C27.8547 143.799 27.2311 144.622 27.6427 145.704C27.9754 146.58 28.2472 147.716 28.2472 148.228C28.2472 148.741 29.5136 149.16 31.0613 149.16C36.6258 149.16 38.1273 154.201 33.6393 157.816C30.4995 160.344 31.6141 164.636 35.1665 163.697C40.4319 162.307 43.1184 167.899 39.2062 172.105C36.0755 175.471 37.8308 177.909 43.4591 178.012C48.5547 178.106 49.7924 180.79 46.8391 185.343C44.4219 189.07 47.0401 192.119 51.2723 190.506C56.4272 188.54 59.5072 192.94 56.4242 197.865C54.6247 200.739 58.1026 203.17 61.4856 201.404C66.9963 198.525 70.4913 201.091 68.4491 206.516C67.1455 209.98 67.1068 209.816 69.5375 211.13C71.1557 212.005 72.012 211.933 73.3065 210.813C77.9573 206.789 82.1273 208.908 81.1785 214.813C80.3905 219.719 83.4328 221.237 86.9439 217.691C90.9887 213.605 96.7336 216.693 95.3105 222.188C95.0079 223.358 95.4004 224.383 96.2813 224.724C98.9919 225.775 100.26 225.319 101.587 222.813C104.227 217.831 108.802 219.208 110.018 225.349C110.806 229.327 115.138 229.672 116.092 225.835C117.476 220.262 122.899 220.303 124.903 225.902C126.466 230.269 130.363 230.809 131.36 226.796C132.791 221.038 137.76 220.317 140.405 225.483C142.543 229.659 146.012 229.098 146.953 224.424C148.35 217.484 154.352 216.779 156.405 223.313C156.83 224.664 157.623 225.231 158.574 224.863C159.398 224.544 160.463 224.282 160.941 224.282C161.418 224.282 161.946 222.112 162.114 219.46C162.503 213.347 166.214 212.091 169.9 216.824C173.106 220.94 175.484 219.098 175.486 212.498C175.487 206.526 178.234 205.318 183.268 209.076C187.181 211.998 189.789 210.124 188.091 205.611C185.434 198.554 188.735 195.284 194.842 198.923C200.071 202.04 201.92 199.68 198.783 193.894C195.533 187.902 200.108 184.192 205.79 188.212C209.841 191.078 212.307 186.514 208.74 182.753C204.097 177.857 205.342 175.047 212.154 175.047C218.893 175.047 219.767 173.232 215.235 168.654C210.098 163.465 211.929 159.891 219.418 160.489C225.073 160.942 226.306 157.381 221.229 155.256C213.555 152.046 215.708 145.648 224.379 145.896C226.877 145.969 229.533 142.014 227.472 141.291C217.937 137.946 216.481 131.877 224.835 130.293C229.602 129.39 229.771 125.357 225.081 124.41C217.069 122.791 217.365 116.154 225.541 114.092C230.45 112.855 228.858 109.111 223.318 108.864C215.42 108.512 213.889 102.261 220.95 99.197C222.478 98.5335 223.864 97.9092 224.029 97.8087C226.427 96.3525 222.6 92.6953 219.639 93.6131C210.536 96.4352 208.358 89.4803 216.569 83.8091C220.366 81.1865 217.015 77.8547 212.497 79.7612C204.873 82.9792 201.205 77.1497 207.104 71.1906C211.082 67.1731 208.416 63.349 203.778 66.4184C197.457 70.6013 191.958 64.6144 197.049 59.0945C201.101 54.7019 197.32 51.4945 192.71 55.4125C186.644 60.5675 181.299 56.8291 184.727 49.8301C187.583 43.9995 184.596 40.2764 180.885 45.0416C174.607 53.104 169.161 49.1403 172.448 38.9009C172.99 37.2116 172.639 36.6249 170.793 36.135C169.506 35.7934 168.308 35.9361 168.133 36.4523C165.182 45.1553 155.158 43.5965 157.35 34.7752C158.282 31.0262 158.273 31.0054 155.367 30.2202C153.397 29.6882 152.873 29.9258 152.873 31.3521C152.873 33.9702 149.025 38.5075 146.805 38.5075C144.374 38.5075 142.823 35.5665 142.823 30.9602C142.823 28.9695 142.407 27.3407 141.9 27.3407C141.392 27.3407 140.262 27.0635 139.387 26.7245C138.331 26.3154 137.797 26.6737 137.797 27.7899C137.797 36.7954 128.77 38.4486 127.152 29.739C126.179 24.5003 122.207 24.853 121.352 30.2542L121.352 30.2542ZM144.312 47.1506C178.939 54.5587 174.632 78.6963 136.29 92.1182C85.9423 109.744 45.4369 94.1237 72.25 67.4234C89.3569 50.388 119.635 41.8702 144.313 47.1506L144.312 47.1506ZM183.525 76.0655C186.014 78.8445 185.73 84.2117 182.973 86.4658C176.111 92.0792 166.755 82.3509 172.974 76.0685C175.629 73.387 181.123 73.3855 183.525 76.0656V76.0655ZM195.476 93.7213C212.39 100.86 214.084 139.945 198.717 168.525C189.362 185.925 173.537 198.764 164.325 196.429C137.147 189.539 161.594 97.1109 191.851 92.3559C192.007 92.3315 193.639 92.9457 195.476 93.7213V93.7213ZM67.0499 101.972C72.1842 107.158 67.4464 116.164 60.7644 113.921C54.7235 111.895 53.7436 103.978 59.1653 101.007C62.9986 98.9057 64.1544 99.0473 67.0499 101.972V101.972ZM132.522 108.724C141.747 111.07 149.149 122.379 147.286 131.281C143.107 151.246 116.176 154.169 109.09 135.427C103.209 119.874 116.557 104.663 132.522 108.724V108.724ZM74.6385 126.58C105.397 141.875 135.628 186.779 125.448 202.052C113.48 220.011 70.4676 197.563 54.0788 164.806C38.7016 134.07 49.4626 114.062 74.6385 126.58V126.58ZM147.391 190.228C151.465 194.343 150.324 199.651 144.877 201.93C138.993 204.392 133.276 197.684 136.272 191.832C138.72 187.051 143.555 186.353 147.391 190.228" fill="white"/>
</svg>

<svg xmlns="http://www.w3.org/2000/svg" width="256" height="256" fill="none" viewBox="0 0 256 256"><rect width="256" height="256" fill="#242938" rx="60"/><path fill="#fff" fill-rule="evenodd" d="M121.35 30.25c-1.2 7.64-7.26 8.05-9.68.65-1.64-5.03-5.71-4.89-5.21.18.76 7.73-5.26 10.27-9.03 3.82-1.36-2.32-2.63-3.41-3.57-3.05a8 8 0 0 1-2.15.57c-.39 0-.53 1.83-.31 4.08.68 7.27-3.75 9.41-8.26 3.99-3.45-4.13-7.17-2.83-5.4 1.89 2.6 7-1.96 10.73-7.62 6.23-2.1-1.67-3.03-1.86-4.66-.98-2.43 1.31-2.4 1-.51 4.81 2.89 5.86-1.13 9.02-7 5.52-4.92-2.93-7.63-.29-4.54 4.44 3.9 5.97.34 10.45-5.83 7.34-4.3-2.16-6.39 1.01-3.29 4.99 4.16 5.34 1.1 10.56-4.87 8.29-1.33-.5-2.47-.79-2.55-.64a34 34 0 0 1-1.4 1.95c-1.06 1.4-.76 2.17 1.9 4.85 3.92 3.96 2.52 7.47-3.2 8.04-5.6.55-6.54 3.8-1.9 6.47 4.84 2.78 2.6 8.92-3.24 8.92-3.04 0-2.2 4.33 1.23 6.3 4.2 2.42 4.2 6.63 0 8.23-3.24 1.23-4.57 6.8-1.62 6.8 5.84 0 6.57 7.03.95 9.2-1.74.66-2.36 1.48-1.95 2.56.34.88.6 2.02.6 2.53s1.27.93 2.82.93c5.57 0 7.07 5.04 2.58 8.66-3.14 2.52-2.03 6.82 1.53 5.88 5.26-1.4 7.95 4.2 4.04 8.4-3.13 3.37-1.38 5.8 4.25 5.91 5.1.1 6.33 2.78 3.38 7.33-2.42 3.73.2 6.78 4.43 5.17 5.16-1.97 8.24 2.43 5.15 7.36-1.8 2.87 1.68 5.3 5.07 3.53 5.5-2.87 9-.3 6.96 5.12-1.3 3.46-1.34 3.3 1.09 4.61 1.62.88 2.47.8 3.77-.32 4.65-4.02 8.82-1.9 7.87 4-.79 4.9 2.25 6.43 5.76 2.88 4.05-4.09 9.8-1 8.37 4.5-.3 1.17.09 2.2.97 2.53 2.71 1.06 3.98.6 5.3-1.9 2.65-4.99 7.22-3.61 8.44 2.53.79 3.98 5.12 4.32 6.07.49 1.39-5.58 6.8-5.54 8.81.06 1.57 4.37 5.46 4.9 6.46.9 1.43-5.76 6.4-6.48 9.04-1.32 2.14 4.18 5.61 3.62 6.55-1.06 1.4-6.94 7.4-7.64 9.46-1.1.42 1.34 1.21 1.91 2.16 1.54a9 9 0 0 1 2.37-.58c.48 0 1-2.17 1.17-4.82.4-6.11 4.1-7.37 7.79-2.64 3.2 4.12 5.58 2.28 5.59-4.32 0-5.97 2.74-7.18 7.78-3.42 3.91 2.92 6.52 1.04 4.82-3.47-2.66-7.06.65-10.33 6.75-6.69 5.23 3.12 7.08.76 3.94-5.03-3.25-5.99 1.33-9.7 7.01-5.68 4.05 2.87 6.52-1.7 2.95-5.46-4.64-4.9-3.4-7.7 3.41-7.7 6.74 0 7.62-1.82 3.09-6.4-5.14-5.19-3.31-8.76 4.18-8.16 5.65.45 6.89-3.1 1.8-5.23-7.66-3.21-5.51-9.61 3.16-9.36 2.5.07 5.15-3.89 3.1-4.6-9.54-3.35-11-9.42-2.64-11 4.76-.91 4.93-4.94.24-5.89-8.01-1.62-7.72-8.26.46-10.32 4.91-1.23 3.32-4.98-2.22-5.23-7.9-.35-9.43-6.6-2.37-9.66a72 72 0 0 0 3.08-1.4c2.4-1.45-1.43-5.1-4.4-4.19-9.1 2.83-11.27-4.13-3.06-9.8 3.8-2.62.44-5.96-4.07-4.05-7.63 3.22-11.3-2.61-5.4-8.57 3.98-4.02 1.32-7.84-3.32-4.77-6.32 4.18-11.82-1.8-6.73-7.33 4.05-4.39.27-7.6-4.34-3.68-6.07 5.16-11.41 1.42-7.98-5.58 2.85-5.83-.13-9.55-3.84-4.79-6.28 8.06-11.73 4.1-8.44-6.14.54-1.69.19-2.28-1.66-2.77-1.28-.34-2.48-.2-2.66.32-2.95 8.7-12.97 7.15-10.78-1.67.93-3.75.92-3.77-1.98-4.56-1.97-.53-2.5-.3-2.5 1.13 0 2.62-3.84 7.16-6.06 7.16-2.44 0-3.99-2.94-3.99-7.55 0-2-.41-3.62-.92-3.62-.5 0-1.64-.28-2.51-.62q-1.6-.6-1.6 1.07c0 9-9.02 10.66-10.64 1.95-.97-5.24-4.94-4.89-5.8.51m22.96 16.9c34.63 7.4 30.32 31.55-8.02 44.97-50.35 17.62-90.85 2-64.04-24.7 17.1-17.03 47.39-25.55 72.06-20.27m39.22 28.92c2.48 2.77 2.2 8.14-.56 10.4-6.86 5.6-16.22-4.12-10-10.4 2.66-2.68 8.15-2.68 10.56 0m11.95 17.65c16.91 7.14 18.6 46.22 3.24 74.8-9.36 17.4-25.18 30.24-34.4 27.9-27.17-6.88-2.73-99.3 27.53-104.06.16-.03 1.79.59 3.63 1.36m-128.43 8.25c5.13 5.19.4 14.2-6.29 11.95-6.04-2.03-7.02-9.94-1.6-12.91 3.84-2.1 5-1.96 7.89.96m65.47 6.75c9.23 2.35 16.63 13.66 14.77 22.56-4.18 19.97-31.11 22.89-38.2 4.15-5.88-15.56 7.47-30.77 23.43-26.7m-57.88 17.86c30.76 15.3 60.99 60.2 50.8 75.47-11.96 17.96-54.97-4.49-71.36-37.24-15.38-30.74-4.62-50.75 20.56-38.23m72.75 63.65c4.08 4.11 2.93 9.42-2.51 11.7-5.89 2.46-11.6-4.25-8.6-10.1 2.44-4.78 7.28-5.48 11.11-1.6" clip-rule="evenodd"/></svg>
